X: 7324
T: Cliff Dwellers, The
R: reel
M: 4/4
K: Adorian
d|e ~A3 GA B/c/d|ea{b}ae bc'bg|~a3 g ed{a}ge|dGBG B/c/d {a}gf||
e ~A3 GA B/c/d|e2 ae bc'bg|abag ed{a}ge|dGBG A3 d||
e ~A3 ~G3 d|ea{b}ae bc'bg|a2 {b}ag ed{a}ge|d ~G3 B/c/d gf||
e ~A3 GA B/c/d|e2 ae bc'bg|a2 {b}ag ed{a}ge|dGBG A4||
{b}aged B ~A3|EA{B}AG B ~A3|B/c/d ef gded|B ~G3 d3 e||
aged B ~A3|e2 ae bc'bg|abag ed{a}ge|dGBG A4||
{b}aged B ~A3|EA{B}AG B ~A3|B/c/d ef gded|B ~G3 d3 e||
aged B ~A3|e2 ae bc'bg|abag ed{a}ge|dGBG A2 B/c/d||

